X:1
T:Title
%%score { 1 | 2 }
L:1/8
M:4/4
K:Ab
V:1 treble nm="Grand Piano"
V:2 bass 
V:1
 z4 z2[Q:1/4=100] [Cc]2 | [CB]2 [CA]2 [CG]2 [CF]2 | [CE]3 [DF] [CE]2 [Cc]2 | %3
 [CB]2 [CA]2 [CG]2 [C=E]2 | [DF]3 [EG] [DF]2 [Dd]2 | [Dc]2 [DB]2 [DA]2 [DG]2 | B2 A2 G2 F2 | %7
 E2 c2 B3 [CA] | [CA]6 [CA]2 | [FA]2 [FA]2 [EG]2 [DF]2 | [CE]6 [Ec]2 | [=DB]2 [DF]2 [DB]2 [DA]2 | %12
 G6 E2 | F2 G2 A2 B2 |[M:9/8] c2 A- A [Fd]2- [Fd] [Ec]2 |[M:4/4] B3 =A B2 c2 |[M:3/4] [CA]6 |] %17
V:2
 z4 z2 [A,,A,]2 | [A,,A,]2 [A,,A,]2 [A,,A,]2 [A,,A,]2 | [A,,A,]3 [A,,A,] [A,,A,]2 [A,,A,]2 | %3
 [A,,A,]2 [A,,A,]2 [A,,A,]2 [A,,A,]2 | [D,A,]3 [D,A,] [D,A,]2 [B,,B,]2 | %5
 [B,,B,]2 [B,,B,]2 [B,,B,]2 [B,,B,]2 | [D,F,D]2 [D,F,D]2 [D,G,D]2 [D,A,D]2 | %7
 [E,A,C]2 [E,A,E]2 [E,G,D]3 [A,,A,] | [A,,A,]6 [A,,A,]2 | [D,A,]2 [D,A,]2 [D,A,]2 [D,A,]2 | %10
 [A,,A,]6 [A,,A,]2 | [B,,F,]2 [B,,B,]2 [B,,B,]2 [B,,B,]2 | [E,B,E]6 [E,G,]2 | %13
 [E,A,=D]2 [E,B,_D]2 [E,A,C]2 [E,G,E]2 | %14
[M:9/8][K:treble] [A,E]2 [A,_G]- [A,G][K:bass] [D,A,]2- [D,A,] [A,,A,]2 | %15
[M:4/4] [E,G,D]3 [E,_G,C] [E,=G,D]2 [E,G,E]2 |[M:3/4] [A,,A,]6 |] %17

